src/img/icons/download.svg

<?xml version="1.0" encoding="UTF-8"?>
<svg width="14px" height="14px" viewBox="0 0 14 14" version="1.1" xmlns="http://www.w3.org/2000/svg" xmlns:xlink="http://www.w3.org/1999/xlink">
    <!-- Generator: sketchtool 50.2 (55047) - http://www.bohemiancoding.com/sketch -->
    <title>E556BD54-4C47-4221-985E-D29044033D40</title>
    <desc>Created with sketchtool.</desc>
    <defs></defs>
    <g id="UI-pack" stroke="none" stroke-width="1" fill="none" fill-rule="evenodd">
        <g id="Icons-set" transform="translate(-392.000000, -125.000000)">
            <g id="Icon/download-14-basic500" transform="translate(392.000000, 125.000000)">
                <rect id="ico-zone" fill-opacity="0" fill="#FF5656" x="0" y="0" width="14" height="14"></rect>
                <g id="donwload" stroke-width="1" fill="#9BA6B2">
                    <path d="M13,14 L1,14 L0,14 L0,9 L1,9 L1,13 L13,13 L13,9 L14,9 L14,14 L13,14 Z" id="Combined-Shape" fill-rule="nonzero"></path>
                    <path d="M6.5,8.29289322 L6.5,0 L7.5,0 L7.5,8.29289322 L9.41421356,6.37867966 L10.1213203,7.08578644 L6.99975548,10.2073513 L6.64027359,9.84738037 L3.87867966,7.08578644 L4.58578644,6.37867966 L6.5,8.29289322 Z" id="Combined-Shape"></path>
                </g>
            </g>
        </g>
    </g>
</svg>

<svg xmlns="http://www.w3.org/2000/svg" width="14" height="14" viewBox="0 0 14 14">
    <g fill="none" fill-rule="evenodd">
        <path fill="#FF5656" fill-opacity="0" d="M0 0h14v14H0z"/>
        <path fill="#4E5C6E" d="M13 14H0V9h1v4h12V9h1v5h-1z"/>
        <path fill="#4E5C6E" d="M6.5 8.293V0h1v8.293l1.914-1.914.707.707L7 10.207l-.36-.36L3.88 7.086l.707-.707L6.5 8.293z"/>
    </g>
</svg>
